icons/svg/16x16/emoji activated/outline.svg

<svg xmlns="http://www.w3.org/2000/svg" width="16" height="16" viewBox="0 0 16 16">
  <path fill-rule="evenodd" d="M11.8184,9.4258 C11.4144,10.2528 10.2894,11.9998 8.0004,11.9998 C5.7114,11.9998 4.5864,10.2528 4.1814,9.4258 C4.0854,9.2278 4.2354,8.9998 4.4554,8.9998 L11.5454,8.9998 C11.7654,8.9998 11.9154,9.2278 11.8184,9.4258 M5.0004,6.4998 C5.0004,5.6718 5.4474,4.9998 6.0004,4.9998 C6.5524,4.9998 7.0004,5.6718 7.0004,6.4998 C7.0004,7.3278 6.5524,7.9998 6.0004,7.9998 C5.4474,7.9998 5.0004,7.3278 5.0004,6.4998 M9.0004,6.4998 C9.0004,5.6718 9.4474,4.9998 10.0004,4.9998 C10.5524,4.9998 11.0004,5.6718 11.0004,6.4998 C11.0004,7.3278 10.5524,7.9998 10.0004,7.9998 C9.4474,7.9998 9.0004,7.3278 9.0004,6.4998 M12.6544,11.2488 C12.5034,11.9508 11.9514,12.5028 11.2494,12.6548 C10.1894,12.8838 9.0954,12.9998 8.0004,12.9998 C6.9044,12.9998 5.8114,12.8838 4.7504,12.6548 C4.0484,12.5028 3.4974,11.9508 3.3454,11.2488 C3.1164,10.1898 3.0004,9.0958 3.0004,7.9998 C3.0004,6.9048 3.1164,5.8108 3.3454,4.7498 C3.4974,4.0488 4.0484,3.4968 4.7504,3.3458 C5.8104,3.1158 6.9044,2.9998 8.0004,2.9998 C9.0964,2.9998 10.1894,3.1158 11.2494,3.3458 C11.9514,3.4968 12.5034,4.0488 12.6544,4.7508 C12.8834,5.8118 13.0004,6.9048 13.0004,7.9998 C13.0004,9.0958 12.8834,10.1888 12.6544,11.2488 M14.6094,4.3278 C14.2914,2.8568 13.1434,1.7088 11.6724,1.3908 C10.4884,1.1348 9.2594,0.9998 8.0004,0.9998 C6.7404,0.9998 5.5114,1.1348 4.3284,1.3908 C2.8564,1.7078 1.7094,2.8568 1.3904,4.3278 C1.1344,5.5118 1.0004,6.7398 1.0004,7.9998 C1.0004,9.2598 1.1344,10.4878 1.3904,11.6718 C1.7094,13.1438 2.8564,14.2908 4.3284,14.6098 C5.5114,14.8648 6.7404,14.9998 8.0004,14.9998 C9.2594,14.9998 10.4884,14.8648 11.6724,14.6098 C13.1434,14.2908 14.2914,13.1438 14.6094,11.6718 C14.8654,10.4878 15.0004,9.2598 15.0004,7.9998 C15.0004,6.7398 14.8654,5.5118 14.6094,4.3278"/>
</svg>

<svg width="16" height="16" fill="none" xmlns="http://www.w3.org/2000/svg">
  <path fill-rule="evenodd" clip-rule="evenodd" d="M11.818 9.426C11.414 10.253 10.29 12 8 12s-3.414-1.747-3.819-2.574A.3.3 0 014.455 9h7.09c.22 0 .37.228.273.426zM5 6.5C5 5.672 5.447 5 6 5c.552 0 1 .672 1 1.5S6.552 8 6 8c-.553 0-1-.672-1-1.5zm4 0c0-.828.447-1.5 1-1.5.552 0 1 .672 1 1.5S10.552 8 10 8c-.553 0-1-.672-1-1.5zm3.654 4.749a1.838 1.838 0 01-1.405 1.406 15.43 15.43 0 01-6.499 0 1.839 1.839 0 01-1.405-1.406 15.436 15.436 0 010-6.499A1.837 1.837 0 014.75 3.346C5.81 3.116 6.904 3 8 3s2.19.116 3.25.346a1.835 1.835 0 011.404 1.405 15.428 15.428 0 010 6.498zm1.955-6.921a3.832 3.832 0 00-2.937-2.937A17.364 17.364 0 008 1c-1.26 0-2.489.135-3.672.39A3.832 3.832 0 001.39 4.329 17.356 17.356 0 001 8c0 1.26.134 2.488.39 3.672a3.835 3.835 0 002.938 2.938 17.43 17.43 0 007.344 0 3.834 3.834 0 002.937-2.938 17.422 17.422 0 00.001-7.344z" fill="#000"/>
</svg>
